packages/core/src/svgs/tokens/branded/OTK.svg

<svg width="24" height="24" viewBox="0 0 24 24" fill="none" xmlns="http://www.w3.org/2000/svg">
<path d="M21.9708 14.175C22.0771 13.7063 21.8584 13.2376 21.4584 12.9689L20.9459 12.6251L19.6834 13.25C20.6334 13.25 21.4334 13.6814 21.3709 13.9814C20.9009 16.0849 19.7262 17.9647 18.0417 19.3092C16.3571 20.654 14.2639 21.3828 12.1084 21.3751C10.8702 21.3825 9.64256 21.1459 8.49589 20.6786C7.34916 20.2114 6.30573 19.5227 5.42523 18.6521C4.54474 17.7815 3.84442 16.7459 3.36432 15.6045C2.88422 14.4632 2.63374 13.2384 2.62719 12.0001C2.62719 6.82512 6.87093 2.62514 12.1022 2.62514C16.6459 2.62514 20.4459 5.79387 21.3646 10.0188C21.4272 10.3313 20.6271 10.7502 19.6772 10.7502L20.9397 11.3751L21.4396 11.0625C21.6429 10.9389 21.8028 10.7553 21.8979 10.5372C21.993 10.3191 22.0185 10.077 21.9708 9.84381C21.4613 7.61003 20.2064 5.61623 18.4127 4.19059C16.6189 2.76495 14.3934 1.99242 12.1022 2.00012C10.7824 1.99355 9.47427 2.24699 8.25238 2.74597C7.03054 3.24495 5.91895 3.97972 4.98108 4.90831C4.04322 5.83689 3.29743 6.94112 2.7863 8.15793C2.27518 9.37481 2.00875 10.6803 2.0022 12.0001C2.0022 17.5251 6.52719 22 12.1084 22C16.9333 22 20.9709 18.6501 21.9708 14.175ZM13.5585 13.9502C14.2446 13.629 14.8237 13.1169 15.2261 12.4751C15.6286 11.8333 15.8372 11.0889 15.8272 10.3313C15.8272 8.14386 14.1209 6.37511 11.9896 6.37511C9.85839 6.37511 8.16467 8.18761 8.16467 10.3751C8.1546 11.1286 8.36444 11.8687 8.76849 12.5047C9.17254 13.1408 9.75325 13.6452 10.4397 13.9563L8.98342 15.2189C8.68343 14.8876 7.98343 14.2188 7.62718 14.1376C7.79593 14.3376 7.99593 14.7 8.17717 15.0376C8.37092 15.3939 8.55218 15.7251 8.67717 15.8314C8.90218 16.0188 10.0085 15.875 10.6396 15.1438V15.3314L9.68339 16.8626C9.25494 16.575 8.7645 16.393 8.25217 16.3313L8.33967 16.4002C8.50843 16.5375 8.67093 16.6625 8.87717 16.9126C9.12719 17.2251 9.37087 17.5188 9.51466 17.6001C9.7897 17.7439 10.9959 17.3188 11.4084 16.3313L12.0021 15.75L12.5772 16.2813C12.9646 17.3064 14.2084 17.7439 14.4896 17.5938C14.6334 17.5188 14.871 17.2251 15.1272 16.9126C15.3022 16.7001 15.446 16.6001 15.5896 16.4938L15.7521 16.3751C15.2428 16.4204 14.752 16.5877 14.3209 16.8626L13.3458 15.3125L13.3959 15.1689C14.0209 15.875 15.1021 16.0125 15.3209 15.8314C15.4521 15.7251 15.6334 15.3939 15.8209 15.0376C16.0085 14.7 16.2084 14.3376 16.3771 14.1376C16.0147 14.2188 15.3209 14.8876 15.0209 15.2189L13.5585 13.9502ZM12.0522 10.2501H11.9521L11.7834 10.4688C11.4585 10.8938 11.0897 11.3751 10.6147 11.3751C10.0022 11.3751 9.50212 10.8126 9.50212 10.1251C9.50212 9.47514 9.93962 8.94386 10.5021 8.88137V8.87511H13.6146V8.90011C14.1147 9.01886 14.5021 9.52516 14.5021 10.1251C14.5021 10.8126 14.0021 11.3751 13.3896 11.3751C12.9146 11.3751 12.5459 10.8938 12.2209 10.4688L12.0522 10.2501Z" fill="url(#paint0_linear_364_12106)"/>
<defs>
<linearGradient id="paint0_linear_364_12106" x1="12.0021" y1="2.00012" x2="12.0021" y2="22" gradientUnits="userSpaceOnUse">
<stop stop-color="#A520B6"/>
<stop offset="1" stop-color="#15E6FC"/>
</linearGradient>
</defs>
</svg>

<svg xmlns="http://www.w3.org/2000/svg" width="24" height="24" fill="none" viewBox="0 0 24 24">
    <path fill="url(#OTK__a)" d="M21.97 14.175c.107-.469-.112-.937-.512-1.206l-.512-.344-1.263.625c.95 0 1.75.431 1.688.731a9.455 9.455 0 0 1-9.263 7.394A9.423 9.423 0 0 1 2.628 12c0-5.175 4.243-9.375 9.474-9.375 4.544 0 8.344 3.169 9.263 7.394.062.312-.738.731-1.688.731l1.263.625.5-.312a1.155 1.155 0 0 0 .53-1.22A10.09 10.09 0 0 0 12.103 2a10.05 10.05 0 0 0-10.1 10c0 5.525 4.525 10 10.106 10 4.825 0 8.863-3.35 9.863-7.825m-8.411-.225a3.94 3.94 0 0 0 2.268-3.619c0-2.187-1.706-3.956-3.837-3.956s-3.825 1.813-3.825 4a3.88 3.88 0 0 0 2.275 3.581L8.983 15.22c-.3-.331-1-1-1.356-1.081.169.2.369.562.55.9.194.356.375.687.5.793.225.188 1.332.044 1.963-.687v.187l-.957 1.532a3.3 3.3 0 0 0-1.43-.532l.087.07c.168.137.33.262.537.512.25.312.494.606.638.687.275.144 1.48-.281 1.893-1.269l.594-.581.575.531c.388 1.025 1.631 1.463 1.913 1.313.143-.075.381-.369.637-.681.175-.213.319-.313.463-.42l.162-.118c-.51.045-1 .213-1.431.488l-.975-1.55.05-.144c.625.706 1.706.843 1.925.662.131-.106.312-.437.5-.793.188-.338.387-.7.556-.9-.362.08-1.056.75-1.356 1.08zm-1.507-3.7h-.1l-.169.219c-.324.425-.693.906-1.168.906-.613 0-1.113-.562-1.113-1.25 0-.65.438-1.181 1-1.244v-.006h3.113V8.9c.5.119.887.625.887 1.225 0 .688-.5 1.25-1.112 1.25-.475 0-.844-.481-1.17-.906z"/>
    <defs>
        <linearGradient id="OTK__a" x1="12.002" x2="12.002" y1="2" y2="22" gradientUnits="userSpaceOnUse">
            <stop stop-color="#A520B6"/>
            <stop offset="1" stop-color="#15E6FC"/>
        </linearGradient>
    </defs>
</svg>
